X: 1
T: Little & Large
C:\251 George Meikle
B: George Meikle "Originally Mine" p.22
R: jig
Z: 2010 John Chambers <jc:trillian.mit.edu>
M: 6/8
L: 1/8
K: Em
G/F/ \
|: "Em"EB^A "B/Em"B^AB | "Em"AGE "A7"E2F/E/ | "D"DA^F "A/D"A^GA | "D"BAF "Bm"DEF |
   "Em"EB^A "B/Em"B^AB | "Em"AGA "C#/A7"B2A | "D"FAB "B7"AGF | "Em"E3 "Em"E2G/F/ :|
|: "Em"Ee^d "B/Em"e^de | "Em"dBA "A7"AB^c | "D"Dd^c "A/D"d^cd | "D"AB"G"G "Bm"FED |
[1 "Em"Ee^d "B/Em"e^de | "Em"dBA "A7"AB^c | "D"d^cd "B7"BAF | "Em"GEE E2G/F/ :|
[1 "Em"Ee^d "B/Em"e^de | "Em"dBA "A7"AB^c | "D"d^cd "B7"AGF | "Em"GEE "Em"E3 |]
%%begintext align
This tune along with 'Norman & Helen Robson' was composed for the dance Johnnie Walker (64S+64J) devised by
Norman & Helen Robson.  Johnnie Walker is a popular whisky which can be served in 'nips or doubles' - hence
Little & Large.
%%endtext

%%sep 1 1 500
%%sep 1 1 500

